X:468
M:C|
L:1/8
K:E Minor
|:f|gfef gfeg|feda fdaf|1 gfef gfeg|fdAF E/E/E E:|2 gfeb gefd|AFdF E/E/E E||

